X:0986
T:A Do.
M:6/8
L:1/8
Q:3/8=112
I: :: ||
Z:Jack Campin * www.campin.me.uk * 2009
K:A Dorian % Aird uses a minor keysig and an accidental
B|cAA eAA|dBA G2B|cAA e2c|d2B A2:|
B|GGg geg|dBd G2A|AAa aga|a2e e2
a|agf gfe|dBd G2B|AAa edc|d2B A2|]

